src/assets/img/css.svg

<?xml version="1.0" encoding="iso-8859-1"?>
<!-- Generator: Adobe Illustrator 18.0.0, SVG Export Plug-In . SVG Version: 6.00 Build 0)  -->
<!DOCTYPE svg PUBLIC "-//W3C//DTD SVG 1.1//EN" "http://www.w3.org/Graphics/SVG/1.1/DTD/svg11.dtd">
<svg version="1.1" id="Capa_1" xmlns="http://www.w3.org/2000/svg" xmlns:xlink="http://www.w3.org/1999/xlink" x="0px" y="0px"
	 viewBox="0 0 58 58" style="enable-background:new 0 0 58 58;" xml:space="preserve">
<g>
	<path d="M6.5,41v15c0,1.009,1.22,2,2.463,2h40.074c1.243,0,2.463-0.991,2.463-2V41H6.5z M19.46,50.664
		c0.132,0.483,0.314,0.877,0.547,1.183s0.497,0.528,0.793,0.67s0.608,0.212,0.937,0.212s0.636-0.06,0.923-0.178
		s0.549-0.31,0.786-0.574l1.135,0.998c-0.374,0.364-0.798,0.638-1.271,0.82s-0.984,0.273-1.531,0.273
		c-0.602,0-1.155-0.109-1.661-0.328s-0.948-0.542-1.326-0.971s-0.675-0.966-0.889-1.613c-0.214-0.647-0.321-1.395-0.321-2.242
		s0.107-1.593,0.321-2.235c0.214-0.643,0.511-1.178,0.889-1.606s0.822-0.754,1.333-0.978s1.062-0.335,1.654-0.335
		c0.547,0,1.058,0.091,1.531,0.273s0.897,0.456,1.271,0.82l-1.135,1.012c-0.228-0.265-0.48-0.456-0.759-0.574
		s-0.567-0.178-0.868-0.178c-0.337,0-0.658,0.063-0.964,0.191s-0.579,0.344-0.82,0.649s-0.431,0.699-0.567,1.183
		s-0.21,1.075-0.219,1.777C19.257,49.598,19.328,50.181,19.46,50.664z M32.407,52.298c-0.15,0.342-0.362,0.643-0.636,0.902
		s-0.61,0.467-1.012,0.622s-0.856,0.232-1.367,0.232c-0.219,0-0.444-0.012-0.677-0.034s-0.467-0.062-0.704-0.116
		s-0.463-0.13-0.677-0.226s-0.398-0.212-0.554-0.349l0.287-1.176c0.128,0.073,0.289,0.144,0.485,0.212s0.398,0.132,0.608,0.191
		s0.419,0.107,0.629,0.144s0.405,0.055,0.588,0.055c0.556,0,0.982-0.13,1.278-0.39s0.444-0.645,0.444-1.155
		c0-0.31-0.104-0.574-0.314-0.793s-0.472-0.417-0.786-0.595s-0.654-0.355-1.019-0.533s-0.706-0.388-1.025-0.629
		s-0.583-0.526-0.793-0.854s-0.314-0.738-0.314-1.23c0-0.446,0.082-0.843,0.246-1.189s0.385-0.641,0.663-0.882
		s0.602-0.426,0.971-0.554s0.759-0.191,1.169-0.191c0.419,0,0.843,0.039,1.271,0.116s0.774,0.203,1.039,0.376
		c-0.055,0.118-0.118,0.248-0.191,0.39s-0.142,0.273-0.205,0.396c-0.063,0.123-0.118,0.226-0.164,0.308s-0.073,0.128-0.082,0.137
		c-0.055-0.027-0.116-0.063-0.185-0.109s-0.166-0.091-0.294-0.137s-0.296-0.077-0.506-0.096s-0.479-0.014-0.807,0.014
		c-0.183,0.019-0.355,0.07-0.52,0.157s-0.31,0.193-0.438,0.321s-0.228,0.271-0.301,0.431s-0.109,0.313-0.109,0.458
		c0,0.364,0.104,0.658,0.314,0.882s0.47,0.419,0.779,0.588s0.647,0.333,1.012,0.492s0.704,0.354,1.019,0.581
		s0.576,0.513,0.786,0.854s0.314,0.781,0.314,1.319C32.633,51.603,32.558,51.956,32.407,52.298z M39.817,52.298
		c-0.15,0.342-0.362,0.643-0.636,0.902s-0.61,0.467-1.012,0.622s-0.856,0.232-1.367,0.232c-0.219,0-0.444-0.012-0.677-0.034
		s-0.467-0.062-0.704-0.116s-0.463-0.13-0.677-0.226s-0.398-0.212-0.554-0.349l0.287-1.176c0.128,0.073,0.289,0.144,0.485,0.212
		s0.398,0.132,0.608,0.191s0.419,0.107,0.629,0.144s0.405,0.055,0.588,0.055c0.556,0,0.982-0.13,1.278-0.39s0.444-0.645,0.444-1.155
		c0-0.31-0.104-0.574-0.314-0.793s-0.472-0.417-0.786-0.595s-0.654-0.355-1.019-0.533s-0.706-0.388-1.025-0.629
		s-0.583-0.526-0.793-0.854s-0.314-0.738-0.314-1.23c0-0.446,0.082-0.843,0.246-1.189s0.385-0.641,0.663-0.882
		s0.602-0.426,0.971-0.554s0.759-0.191,1.169-0.191c0.419,0,0.843,0.039,1.271,0.116s0.774,0.203,1.039,0.376
		c-0.055,0.118-0.118,0.248-0.191,0.39s-0.142,0.273-0.205,0.396s-0.118,0.226-0.164,0.308s-0.073,0.128-0.082,0.137
		c-0.055-0.027-0.116-0.063-0.185-0.109s-0.166-0.091-0.294-0.137s-0.296-0.077-0.506-0.096s-0.479-0.014-0.807,0.014
		c-0.183,0.019-0.355,0.07-0.52,0.157s-0.31,0.193-0.438,0.321s-0.228,0.271-0.301,0.431s-0.109,0.313-0.109,0.458
		c0,0.364,0.104,0.658,0.314,0.882s0.47,0.419,0.779,0.588s0.647,0.333,1.012,0.492s0.704,0.354,1.019,0.581
		s0.576,0.513,0.786,0.854s0.314,0.781,0.314,1.319C40.043,51.603,39.968,51.956,39.817,52.298z"/>
	<path d="M51.5,39V13.978c0-0.766-0.092-1.333-0.55-1.792L39.313,0.55C38.964,0.201,38.48,0,37.985,0H8.963
		C7.777,0,6.5,0.916,6.5,2.926V39H51.5z M37.5,3.391c0-0.458,0.553-0.687,0.877-0.363l10.095,10.095
		C48.796,13.447,48.567,14,48.109,14H37.5V3.391z M36.5,23v-4c0-0.551-0.448-1-1-1c-0.553,0-1-0.448-1-1s0.447-1,1-1
		c1.654,0,3,1.346,3,3v4c0,1.103,0.897,2,2,2c0.553,0,1,0.448,1,1s-0.447,1-1,1c-1.103,0-2,0.897-2,2v4c0,1.654-1.346,3-3,3
		c-0.553,0-1-0.448-1-1s0.447-1,1-1c0.552,0,1-0.449,1-1v-4c0-1.2,0.542-2.266,1.382-3C37.042,25.266,36.5,24.2,36.5,23z M16.5,25
		c1.103,0,2-0.897,2-2v-4c0-1.654,1.346-3,3-3c0.553,0,1,0.448,1,1s-0.447,1-1,1c-0.552,0-1,0.449-1,1v4c0,1.2-0.542,2.266-1.382,3
		c0.84,0.734,1.382,1.8,1.382,3v4c0,0.551,0.448,1,1,1c0.553,0,1,0.448,1,1s-0.447,1-1,1c-1.654,0-3-1.346-3-3v-4
		c0-1.103-0.897-2-2-2c-0.553,0-1-0.448-1-1S15.947,25,16.5,25z"/>
</g>
<g>
</g>
<g>
</g>
<g>
</g>
<g>
</g>
<g>
</g>
<g>
</g>
<g>
</g>
<g>
</g>
<g>
</g>
<g>
</g>
<g>
</g>
<g>
</g>
<g>
</g>
<g>
</g>
<g>
</g>
</svg>

<svg width="58" height="58" viewBox="0 0 58 58" fill="none" xmlns="http://www.w3.org/2000/svg">
<path d="M6.5 41V56C6.5 57.009 7.72 58 8.963 58H49.037C50.28 58 51.5 57.009 51.5 56V41H6.5ZM19.46 50.664C19.592 51.147 19.774 51.541 20.007 51.847C20.24 52.153 20.504 52.375 20.8 52.517C21.096 52.659 21.408 52.729 21.737 52.729C22.066 52.729 22.373 52.669 22.66 52.551C22.947 52.433 23.209 52.241 23.446 51.977L24.581 52.975C24.207 53.339 23.783 53.613 23.31 53.795C22.837 53.977 22.326 54.068 21.779 54.068C21.177 54.068 20.624 53.959 20.118 53.74C19.612 53.521 19.17 53.198 18.792 52.769C18.414 52.34 18.117 51.803 17.903 51.156C17.689 50.509 17.582 49.761 17.582 48.914C17.582 48.067 17.689 47.321 17.903 46.679C18.117 46.036 18.414 45.501 18.792 45.073C19.17 44.645 19.614 44.319 20.125 44.095C20.636 43.871 21.187 43.76 21.779 43.76C22.326 43.76 22.837 43.851 23.31 44.033C23.783 44.215 24.207 44.489 24.581 44.853L23.446 45.865C23.218 45.6 22.966 45.409 22.687 45.291C22.408 45.173 22.12 45.113 21.819 45.113C21.482 45.113 21.161 45.176 20.855 45.304C20.549 45.432 20.276 45.648 20.035 45.953C19.794 46.258 19.604 46.652 19.468 47.136C19.332 47.62 19.258 48.211 19.249 48.913C19.257 49.598 19.328 50.181 19.46 50.664ZM32.407 52.298C32.257 52.64 32.045 52.941 31.771 53.2C31.497 53.459 31.161 53.667 30.759 53.822C30.357 53.977 29.903 54.054 29.392 54.054C29.173 54.054 28.948 54.042 28.715 54.02C28.482 53.998 28.248 53.958 28.011 53.904C27.774 53.85 27.548 53.774 27.334 53.678C27.12 53.582 26.936 53.466 26.78 53.329L27.067 52.153C27.195 52.226 27.356 52.297 27.552 52.365C27.748 52.433 27.95 52.497 28.16 52.556C28.37 52.615 28.579 52.663 28.789 52.7C28.999 52.737 29.194 52.755 29.377 52.755C29.933 52.755 30.359 52.625 30.655 52.365C30.951 52.105 31.099 51.72 31.099 51.21C31.099 50.9 30.995 50.636 30.785 50.417C30.575 50.198 30.313 50 29.999 49.822C29.685 49.644 29.345 49.467 28.98 49.289C28.615 49.111 28.274 48.901 27.955 48.66C27.636 48.419 27.372 48.134 27.162 47.806C26.952 47.478 26.848 47.068 26.848 46.576C26.848 46.13 26.93 45.733 27.094 45.387C27.258 45.041 27.479 44.746 27.757 44.505C28.035 44.264 28.359 44.079 28.728 43.951C29.097 43.823 29.487 43.76 29.897 43.76C30.316 43.76 30.74 43.799 31.168 43.876C31.596 43.953 31.942 44.079 32.207 44.252C32.152 44.37 32.089 44.5 32.016 44.642C31.943 44.784 31.874 44.915 31.811 45.038C31.748 45.161 31.693 45.264 31.647 45.346C31.601 45.428 31.574 45.474 31.565 45.483C31.51 45.456 31.449 45.42 31.38 45.374C31.311 45.328 31.214 45.283 31.086 45.237C30.958 45.191 30.79 45.16 30.58 45.141C30.37 45.122 30.101 45.127 29.773 45.155C29.59 45.174 29.418 45.225 29.253 45.312C29.088 45.399 28.943 45.505 28.815 45.633C28.687 45.761 28.587 45.904 28.514 46.064C28.441 46.224 28.405 46.377 28.405 46.522C28.405 46.886 28.509 47.18 28.719 47.404C28.929 47.628 29.189 47.823 29.498 47.992C29.807 48.161 30.145 48.325 30.51 48.484C30.875 48.643 31.214 48.838 31.529 49.065C31.844 49.292 32.105 49.578 32.315 49.919C32.525 50.26 32.629 50.7 32.629 51.238C32.633 51.603 32.558 51.956 32.407 52.298ZM39.817 52.298C39.667 52.64 39.455 52.941 39.181 53.2C38.907 53.459 38.571 53.667 38.169 53.822C37.767 53.977 37.313 54.054 36.802 54.054C36.583 54.054 36.358 54.042 36.125 54.02C35.892 53.998 35.658 53.958 35.421 53.904C35.184 53.85 34.958 53.774 34.744 53.678C34.53 53.582 34.346 53.466 34.19 53.329L34.477 52.153C34.605 52.226 34.766 52.297 34.962 52.365C35.158 52.433 35.36 52.497 35.57 52.556C35.78 52.615 35.989 52.663 36.199 52.7C36.409 52.737 36.604 52.755 36.787 52.755C37.343 52.755 37.769 52.625 38.065 52.365C38.361 52.105 38.509 51.72 38.509 51.21C38.509 50.9 38.405 50.636 38.195 50.417C37.985 50.198 37.723 50 37.409 49.822C37.095 49.644 36.755 49.467 36.39 49.289C36.025 49.111 35.684 48.901 35.365 48.66C35.046 48.419 34.782 48.134 34.572 47.806C34.362 47.478 34.258 47.068 34.258 46.576C34.258 46.13 34.34 45.733 34.504 45.387C34.668 45.041 34.889 44.746 35.167 44.505C35.445 44.264 35.769 44.079 36.138 43.951C36.507 43.823 36.897 43.76 37.307 43.76C37.726 43.76 38.15 43.799 38.578 43.876C39.006 43.953 39.352 44.079 39.617 44.252C39.562 44.37 39.499 44.5 39.426 44.642C39.353 44.784 39.284 44.915 39.221 45.038C39.158 45.161 39.103 45.264 39.057 45.346C39.011 45.428 38.984 45.474 38.975 45.483C38.92 45.456 38.859 45.42 38.79 45.374C38.721 45.328 38.624 45.283 38.496 45.237C38.368 45.191 38.2 45.16 37.99 45.141C37.78 45.122 37.511 45.127 37.183 45.155C37 45.174 36.828 45.225 36.663 45.312C36.498 45.399 36.353 45.505 36.225 45.633C36.097 45.761 35.997 45.904 35.924 46.064C35.851 46.224 35.815 46.377 35.815 46.522C35.815 46.886 35.919 47.18 36.129 47.404C36.339 47.628 36.599 47.823 36.908 47.992C37.217 48.161 37.555 48.325 37.92 48.484C38.285 48.643 38.624 48.838 38.939 49.065C39.254 49.292 39.515 49.578 39.725 49.919C39.935 50.26 40.039 50.7 40.039 51.238C40.043 51.603 39.968 51.956 39.817 52.298Z" fill="#E6E6E6"/>
<path d="M51.5 39V13.978C51.5 13.212 51.408 12.645 50.95 12.186L39.313 0.55C38.964 0.201 38.48 0 37.985 0H8.963C7.777 0 6.5 0.916 6.5 2.926V39H51.5ZM37.5 3.391C37.5 2.933 38.053 2.704 38.377 3.028L48.472 13.123C48.796 13.447 48.567 14 48.109 14H37.5V3.391ZM36.5 23V19C36.5 18.449 36.052 18 35.5 18C34.947 18 34.5 17.552 34.5 17C34.5 16.448 34.947 16 35.5 16C37.154 16 38.5 17.346 38.5 19V23C38.5 24.103 39.397 25 40.5 25C41.053 25 41.5 25.448 41.5 26C41.5 26.552 41.053 27 40.5 27C39.397 27 38.5 27.897 38.5 29V33C38.5 34.654 37.154 36 35.5 36C34.947 36 34.5 35.552 34.5 35C34.5 34.448 34.947 34 35.5 34C36.052 34 36.5 33.551 36.5 33V29C36.5 27.8 37.042 26.734 37.882 26C37.042 25.266 36.5 24.2 36.5 23ZM16.5 25C17.603 25 18.5 24.103 18.5 23V19C18.5 17.346 19.846 16 21.5 16C22.053 16 22.5 16.448 22.5 17C22.5 17.552 22.053 18 21.5 18C20.948 18 20.5 18.449 20.5 19V23C20.5 24.2 19.958 25.266 19.118 26C19.958 26.734 20.5 27.8 20.5 29V33C20.5 33.551 20.948 34 21.5 34C22.053 34 22.5 34.448 22.5 35C22.5 35.552 22.053 36 21.5 36C19.846 36 18.5 34.654 18.5 33V29C18.5 27.897 17.603 27 16.5 27C15.947 27 15.5 26.552 15.5 26C15.5 25.448 15.947 25 16.5 25Z" fill="#E6E6E6"/>
</svg>
